X: 356
T: Bir Destan
C: Selahattin İçli
O: Turkey
F: http://compmusic.upf.edu/node/140
N: nikriz--sarki--turkaksagi--bir_destan--selahattin_icli
N: makam= nikriz
N: form= sarki
N: usul= turkaksagi = 5/8
M: 5/8
L: 1/16
K: C _7/8B ^3/4f ^c 
Q: 1/4=162
%%MIDI tuningsystem comma53
G2GG G2G2 GG | G2 GGG2 G2GG  | G2GG G2G2 GG | 
w:  DAVUL  |   |   | 
G2 GGG2 G2GG  | G2G2 G4 G2 | G2 G2A2 B4  | \
w:   |  Bir  des tan  do  |  la şır  Bo lu   | 
A2B2 G4 z2 | dc B2dc BAG2  | 
w:  da ğı nın    |  SAZ  | 
d2d2 d4 d2 | d3dd2 d2z2  | =Bc3 d4 z2 | \
w:  Du ma nın da   |  rüz gâ rın da   |  ta şın da    | 
dc .B2z2 BAG2  | G2G2 G4 G2 | 
w:  SAZ  |  Bir  des tan  do  | 
G2 G2A2 B4  | A2B2 G4 z2 | dc B2dc BAG2  | \
w:  la şır  Bo lu   |  da ğı nın    |  SAZ  | 
d2d2 d4 d2 | d3dd2 d2z2  | 
w:  Du ma nın da   |  rüz gâ rın da   | 
=Bc3 d4 z2 | =fe .d2z2 fe.d2  | d2d2 d2g4 | \
w:  ta şın da    |  SAZ  |  Yi ğit le rin   | 
=f2 e2d4c2  | B3B B4 z2 | 
w:  gü zel  köy lü   |  kız la rın    | 
dc B2z2 dcB2  | A3A A2A2 z2 | A2 A2A2 B4  | \
w:  SAZ  |  Tür kü sün de   |  şen li ğin de   | 
G2G2 G4 z2 | =fe d2z2 fed2  | 
w:  dü şün de    |  SAZ  | 
d2d2 d2g4 | =f2 e2d4c2  | B3B B4 z2 | dc B2z2 dcB2  | \
w:  Yi ğit le rin   |  gü zel  köy lü   |  kız la rın    |  SAZ  | 
A3A A2A2 z2 | 
w:  Tür kü sün de   | 
A2 A2A2 B4  | G2G2 G4 z2 | GA B2AB ABG2  | \
w:  şen li ğin de   |  dü şün de    |  SAZ  | 
G2GG G2G2 GG | 
w:  DAVUL  | 
G2 GGG2 G2GG  | G2GG G2G2 GG | G2 GGG2 G2GG  | 
w:   |   |   | 
d3d d2d4 | d2 d2d2 d4  | =B3c d4 z2 | f4(3gfe fgf2  | \
w:  Kar lı  çam  dal  |  la rı  kök nar   |  dal la rı    |  SAZ  | 
f2f2 f2f2 f2 | 
w:  Gö ğe  ku cak  aç  | 
f4f2 f4  | d3^3/4e f4 z2 | d4(3edc ded2  | \
w:  mış  çı nar   |  dal la rı    |  SAZ  | 
d3d d2d4 | d2 d2d2 d4  | 
w:  Kar lı  çam  dal  |  la rı  kök nar   | 
=B3c d4 z2 | f4(3gfe fgf2  | f2f2 f2f2 f2 | \
w:  dal la rı    |  SAZ  |  Gö ğe  ku cak  aç  | 
f4f2 f4  | d3^3/4e f4 z2 | 
w:  mış  çı nar   |  dal la rı    | 
g4(3ggf efg2  | g2g2 g4 =f2 | =f2 e2d2 c4  | \
w:  SAZ  |  Ba har_ ay la  |  rın da  da ğın   | 
B3B B4 z2 | dc .B2z2 dc.B2  | 
w:  yol la rı   |  SAZ  | 
A2A2 A2A4 | A2 A2A2 B4  | G2G2 G4 z2 | GA Bcd2 efg2  | \
w:  Çi çek  çi çek   |  Kö roğ lu nun   |  pe şin de    |  SAZ  | 
g2g2 g4 =f2 | 
w:  Ba har_ ay la  | 
=f2 e2d2 c4  | B3B B4 z2 | dc .B2z2 dc.B2  | \
w:  rın da  da ğın   |  yol la rı   |  SAZ  | 
A2A2 A2A4 | A2 A2A2 B4  | 
w:  Çi çek  çi çek   |  Kö roğ lu nun   | 
G2G2 G4 z2 | BA G2BA GFG2  | G2GG G2G2 GG | \
w:  pe şin de    |  SAZ  |  DAVUL  | 
G2 GGG2 G2GG  | 
w:   | 
G2GG G2G2 GG | G2 GGG2 G2GG  | G2GG G2G2 GG | 
w:   |   |  DAVUL  | 
G2 GGG2 G2GG  | G2GG G2G2 GG | G2 GGG2 G2GG  | 
w:   |   |   | 
GABc d6 | =fe .d2z2 fe.d2  | g4 g=ff4 | \
w:  SAZ  |   |   | 
=fe3ed d4  | 
w:   | 
dcc2 c2_7/8d4 | dc .c2z2 dc.c2  | dcBA B4 z2 | \
w:   |   |   | 
BA G2G2 G4  | 
w:   | 
BAG2 z2BA G2 | F3/2G/ A_1/4B=c6  | _1/4B/=c3/2B/c3/2 B/c3/2B/c3/2 B/c3/2 | 
w:   |   |   | 
=c8^c2  | (3dcB(3dcB (3dcB(3dcB (3dcB | \
w:   |  (Köroğlu  *  *  destânı  *  *  burda  *  *  yazıldı   | 
(3=fed (3fed(3fed (3fed(3fed  | 
w:  Yedigöl  *  *  yolunda  *  *  düğüm  *  *  çözüldü    | 
g4 g=ff4 | =fe3ed d4  | dcc2 c2c4 | dc c2z2 dc.c2  | 
w:  Tüfek  icâd   |  oldu  mertlik  bozuldu    |   |  Diye  *  ninni  dendi  beşik   | 
dcBA B4 z2 | BA G2BA GF.G2  | G2GG G2G2 GG | 
w:  ba şında)    |   |  DAVUL  | 
G2 GGG2 G2GG  | G2GG G2G2 GG | G2 GGG2 G2GG  | 
w:   |   |   | 
|


